X: 6014
T: Canty Jean Solo
R: strathspey
M: 4/4
K: Dmajor
D>A F<d B<g A<f|G<e F>d c<e (3edc|B<g A<f G<e F>d|(3cde (3fed c<aa2|
b>a g<b a>g f<a|g>f e>d c<e e<f|D>A F<d B<g f>d|(3cBA (3GFE D<d d2||
f<a a2 f<a a2|g<b b>a (3gfe (3dcB|A<a a2 c<a a2|g>f e>d c>B A>G|
F<A A2 F<A A2|G<B B<d (3cBA (3GFE|D>A F<d B<g f>d|(3cba (3gfe f<d d2||

